src/assets/outline/SidebarTop.svg

<svg width="24" height="24" viewBox="0 0 24 24"  xmlns="http://www.w3.org/2000/svg">
<path d="M14.9702 22.75H8.97021C3.54022 22.75 1.22021 20.43 1.22021 15V9C1.22021 3.57 3.54022 1.25 8.97021 1.25H14.9702C20.4002 1.25 22.7202 3.57 22.7202 9V15C22.7202 20.43 20.4102 22.75 14.9702 22.75ZM8.97021 2.75C4.36021 2.75 2.72021 4.39 2.72021 9V15C2.72021 19.61 4.36021 21.25 8.97021 21.25H14.9702C19.5802 21.25 21.2202 19.61 21.2202 15V9C21.2202 4.39 19.5802 2.75 14.9702 2.75H8.97021Z" />
<path d="M22 9.25H2C1.59 9.25 1.25 8.91 1.25 8.5C1.25 8.09 1.59 7.75 2 7.75H22C22.41 7.75 22.75 8.09 22.75 8.5C22.75 8.91 22.41 9.25 22 9.25Z" />
<path d="M14.5599 16.2499C14.3699 16.2499 14.1799 16.1799 14.0299 16.0299L11.9999 13.9999L9.96988 16.0299C9.67988 16.3199 9.19988 16.3199 8.90988 16.0299C8.61988 15.7399 8.61988 15.2599 8.90988 14.9699L11.4699 12.4099C11.7599 12.1199 12.2399 12.1199 12.5299 12.4099L15.0899 14.9699C15.3799 15.2599 15.3799 15.7399 15.0899 16.0299C14.9399 16.1799 14.7499 16.2499 14.5599 16.2499Z" />
</svg>

<?xml version="1.0" encoding="UTF-8"?>
<svg width="24" height="24" viewBox="0 0 24 24" xmlns="http://www.w3.org/2000/svg">
 <path d="m14.97 22.75h-6c-5.43 0-7.75-2.32-7.75-7.75v-6c0-5.43 2.32-7.75 7.75-7.75h6c5.43 0 7.75 2.32 7.75 7.75v6c0 5.43-2.31 7.75-7.75 7.75zm-6-20c-4.61 0-6.25 1.64-6.25 6.25v6c0 4.61 1.64 6.25 6.25 6.25h6c4.61 0 6.25-1.64 6.25-6.25v-6c0-4.61-1.64-6.25-6.25-6.25h-6z"/>
 <path d="m22 9.25h-20c-0.41 0-0.75-0.34-0.75-0.75s0.34-0.75 0.75-0.75h20c0.41 0 0.75 0.34 0.75 0.75s-0.34 0.75-0.75 0.75z"/>
 <path d="m14.56 16.25c-0.19 0-0.38-0.07-0.53-0.22l-2.03-2.03-2.03 2.03c-0.29 0.29-0.77 0.29-1.06 0s-0.29-0.77 0-1.06l2.56-2.56c0.29-0.29 0.77-0.29 1.06 0l2.56 2.56c0.29 0.29 0.29 0.77 0 1.06-0.15 0.15-0.34 0.22-0.53 0.22z"/>
</svg>
